CommonLib.Web/CommonLib.Web/wwwroot/icons/regular/phone-office.svg

<svg xmlns="http://www.w3.org/2000/svg" viewBox="0 0 576 512"><!--! Font Awesome Pro 6.2.0 by @fontawesome - https://fontawesome.com License - https://fontawesome.com/license (Commercial License) Copyright 2022 Fonticons, Inc. --><path d="M368 336h-32c-8.875 0-16 7.125-16 16v32c0 8.875 7.125 16 16 16h32c8.875 0 16-7.125 16-16v-32C384 343.1 376.9 336 368 336zM320 256v32c0 8.875 7.125 16 16 16h32C376.9 304 384 296.9 384 288V256c0-8.875-7.125-16-16-16h-32C327.1 240 320 247.1 320 256zM432 400h32c8.875 0 16-7.125 16-16v-32c0-8.875-7.125-16-16-16h-32c-8.875 0-16 7.125-16 16v32C416 392.9 423.1 400 432 400zM432 304h32C472.9 304 480 296.9 480 288V256c0-8.875-7.125-16-16-16h-32C423.1 240 416 247.1 416 256v32C416 296.9 423.1 304 432 304zM512 32H269C262.5 13.38 244.9 0 224 0H144C123.1 0 105.5 13.38 99 32H64C28.62 32 0 60.62 0 96v352c0 35.38 28.62 64 64 64h448c35.38 0 64-28.62 64-64V96C576 60.62 547.4 32 512 32zM144 48H224v320H144V48zM528 448c0 8.875-7.125 16-16 16H64c-8.875 0-16-7.125-16-16V96c0-8.875 7.125-16 16-16h32v288C96 394.5 117.5 416 144 416H224c26.5 0 48-21.5 48-48v-288H320v72C320 174 337.1 192 360 192h168V448zM528 144h-160v-64H512c8.875 0 16 7.125 16 16V144z"/></svg>

<svg xmlns="http://www.w3.org/2000/svg" viewBox="0 0 576 512"><path d="M368 336h-32c-8.84 0-16 7.16-16 16v32c0 8.84 7.16 16 16 16h32c8.84 0 16-7.16 16-16v-32c0-8.84-7.16-16-16-16zm-48-80v32c0 8.84 7.16 16 16 16h32c8.84 0 16-7.16 16-16v-32c0-8.84-7.16-16-16-16h-32c-8.84 0-16 7.16-16 16zm112 144h32c8.84 0 16-7.16 16-16v-32c0-8.84-7.16-16-16-16h-32c-8.84 0-16 7.16-16 16v32c0 8.84 7.16 16 16 16zm0-96h32c8.84 0 16-7.16 16-16v-32c0-8.84-7.16-16-16-16h-32c-8.84 0-16 7.16-16 16v32c0 8.84 7.16 16 16 16zm80-272H269.06C262.45 13.4 244.87 0 224 0h-80c-20.87 0-38.45 13.4-45.06 32H64C28.65 32 0 60.65 0 96v352c0 35.35 28.65 64 64 64h448c35.35 0 64-28.65 64-64V96c0-35.35-28.65-64-64-64zM144 48h80v320h-80V48zm384 400c0 8.82-7.18 16-16 16H64c-8.82 0-16-7.18-16-16V96c0-8.82 7.18-16 16-16h32v288c0 26.51 21.49 48 48 48h80c26.51 0 48-21.49 48-48V80h48v72c0 22.06 17.94 40 40 40h168v256zm0-304H368V80h144c8.82 0 16 7.18 16 16v48z"/></svg>
